icons/label-arrow-up-outline.svg

<svg xmlns="http://www.w3.org/2000/svg" width="24" height="24" viewBox="0 0 24 24">
  <path d="M14.1715729,4 C14.9672223,4 15.7302841,4.31607052 16.2928932,4.87867966 L16.2928932,4.87867966 L21.2928932,9.87867966 C22.4644661,11.0502525 22.4644661,12.9497475 21.2928932,14.1213203 L21.2928932,14.1213203 L16.2928932,19.1213203 C15.7302841,19.6839295 14.9672223,20 14.1715729,20 L14.1715729,20 L5,20 C3.34314575,20 2,18.6568542 2,17 L2,17 L2,7 C2,5.34314575 3.34314575,4 5,4 L5,4 Z M14.1715729,6 L5,6 C4.44771525,6 4,6.44771525 4,7 L4,7 L4,17 C4,17.5522847 4.44771525,18 5,18 L5,18 L14.1715729,18 C14.4367894,18 14.6911433,17.8946432 14.8786797,17.7071068 L14.8786797,17.7071068 L19.8786797,12.7071068 C20.2692039,12.3165825 20.2692039,11.6834175 19.8786797,11.2928932 L19.8786797,11.2928932 L14.8786797,6.29289322 C14.6911433,6.10535684 14.4367894,6 14.1715729,6 L14.1715729,6 Z M10,8 L10.019,8.001 L10.03,8.001 L10.081,8.003 L10.1489612,8.01101934 L10.1489612,8.01101934 C10.165949,8.01362808 10.1833753,8.01670217 10.2007258,8.02024007 C10.2227461,8.0246398 10.2444365,8.02983363 10.2658396,8.03572097 C10.2814633,8.04009773 10.2968513,8.04472872 10.3121425,8.04973809 C10.3317977,8.05612249 10.3515792,8.06331574 10.3710585,8.07110396 L10.4232215,8.09367336 L10.4232215,8.09367336 C10.4438914,8.10337664 10.4642939,8.11379392 10.484277,8.12487577 C10.4963944,8.13149883 10.5086131,8.13860692 10.5207088,8.14599545 C10.546275,8.1617187 10.5711307,8.17849009 10.5951593,8.19631351 C10.6012086,8.20071786 10.6070733,8.20517454 10.6128994,8.20970461 C10.6196628,8.21507113 10.6225624,8.2173721 10.625449,8.21968877 L10.7071068,8.29289322 L13.7071068,11.2928932 C14.0976311,11.6834175 14.0976311,12.3165825 13.7071068,12.7071068 C13.3466228,13.0675907 12.7793918,13.0953203 12.3871006,12.7902954 L12.2928932,12.7071068 L11,11.415 L11,15 C11,15.5522847 10.5522847,16 10,16 C9.48716416,16 9.06449284,15.6139598 9.00672773,15.1166211 L9,15 L9,11.415 L7.70710678,12.7071068 C7.31658249,13.0976311 6.68341751,13.0976311 6.29289322,12.7071068 C5.93240926,12.3466228 5.90467972,11.7793918 6.20970461,11.3871006 L6.29289322,11.2928932 L9.29289322,8.29289322 L9.37,8.224 L9.38,8.215 L9.40469339,8.19633458 L9.40469339,8.19633458 C9.42886931,8.17849009 9.45372505,8.1617187 9.47933981,8.14606743 L9.5159379,8.12467117 L9.5159379,8.12467117 C9.53570605,8.11379392 9.5561086,8.10337664 9.57690085,8.09365378 L9.62866398,8.07122549 L9.62866398,8.07122549 C9.6484208,8.06331574 9.66820232,8.05612249 9.68826359,8.04954668 C9.70314866,8.04472872 9.71853672,8.04009773 9.73400703,8.03584514 C9.75556352,8.02983363 9.77725392,8.0246398 9.7992059,8.02016515 C9.81662474,8.01670217 9.83405099,8.01362808 9.85153313,8.0110178 L9.90996805,8.00399798 L9.90996805,8.00399798 C9.92081308,8.00307004 9.93088722,8.00232561 9.94096861,8.0017331 L9.98082404,8.00018018 L10,8 L10,8 Z"/>
</svg>

<svg xmlns="http://www.w3.org/2000/svg" viewBox="0 0 24 24">
  <path d="M14.17 4a3 3 0 0 1 2.12.88l5 5a3 3 0 0 1 0 4.24l-5 5a3 3 0 0 1-2.12.88H5a3 3 0 0 1-3-3V7a3 3 0 0 1 3-3zm0 2H5a1 1 0 0 0-1 1v10a1 1 0 0 0 1 1h9.17a1 1 0 0 0 .7-.3l5-5a1 1 0 0 0 0-1.4l-5-5a1 1 0 0 0-.7-.3zM10 8h.08l.07.01a1.08 1.08 0 0 1 .22.06l.05.02a1.02 1.02 0 0 1 .2.13l.09.07 3 3a1 1 0 0 1-1.32 1.5l-.1-.08L11 11.4V15a1 1 0 0 1-2 .12V11.4l-1.3 1.3a1 1 0 0 1-1.49-1.32l.08-.1 3-3 .08-.07h.01l.02-.02.08-.05.04-.03.06-.03.05-.02A.99.99 0 0 1 9.85 8H10z"/>
</svg>
